arcticons-light/symbolic/places/certificate-server-symbolic.svg

<?xml version="1.0" encoding="UTF-8" standalone="no"?>
<svg
   viewBox="0 0 48 48"
   version="1.1"
   id="svg2"
   sodipodi:docname="certificate-server.svg"
   xmlns:inkscape="http://www.inkscape.org/namespaces/inkscape"
   xmlns:sodipodi="http://sodipodi.sourceforge.net/DTD/sodipodi-0.dtd"
   xmlns="http://www.w3.org/2000/svg"
   xmlns:svg="http://www.w3.org/2000/svg">
  <sodipodi:namedview
     id="namedview2"
     pagecolor="#ffffff"
     bordercolor="#666666"
     borderopacity="1.0"
     inkscape:showpageshadow="2"
     inkscape:pageopacity="0.0"
     inkscape:pagecheckerboard="0"
     inkscape:deskcolor="#d1d1d1" />
  <defs
     id="defs1">
    <style
       id="style1">.c{fill:none;stroke:#000;stroke-linecap:round;stroke-linejoin:round;}.d{fill:#000;stroke-width:2px;}</style>
  </defs>
  <g
     id="a">
    <path
       style="color:#000000;fill:#000000;stroke-linecap:round;stroke-linejoin:round;-inkscape-stroke:none"
       d="M 7.5,8 C 5.5728985,8 4,9.5728985 4,11.5 v 25 C 4,38.427101 5.5728985,40 7.5,40 h 33 c 1.927101,0 3.5,-1.572899 3.5,-3.5 v -20 C 44,14.572899 42.427101,13 40.5,13 H 25.78125 c -0.729545,0 -1.439566,-0.228292 -2.033203,-0.652344 L 18.833984,8.8378906 C 18.070764,8.2927814 17.156603,8 16.21875,8 Z m 0,1 h 8.71875 c 0.729545,0 1.439425,0.2282539 2.033203,0.6523438 l 4.914063,3.5097652 C 23.929177,13.707257 24.843397,14 25.78125,14 H 40.5 c 1.386695,0 2.5,1.113305 2.5,2.5 v 20 C 43,37.886695 41.886695,39 40.5,39 H 7.5 C 6.1133048,39 5,37.886695 5,36.5 v -25 C 5,10.113305 6.1133048,9 7.5,9 Z"
       id="path1" />
  </g>
  <g
     id="b">
    <path
       style="color:#000000;fill:#000000;stroke-linecap:round;stroke-linejoin:round;-inkscape-stroke:none"
       d="m 18.234375,24.800781 a 0.50005,0.50005 0 0 0 -0.5,0.5 V 34.5 a 0.50005,0.50005 0 0 0 0.5,0.5 h 11.53125 a 0.50005,0.50005 0 0 0 0.5,-0.5 v -9.199219 a 0.50005,0.50005 0 0 0 -0.5,-0.5 z m 0.5,1 h 10.53125 V 34 h -10.53125 z"
       id="rect1" />
    <path
       style="color:#000000;fill:#000000;stroke-linecap:round;stroke-linejoin:round;-inkscape-stroke:none"
       d="m 24,18 c -2.81031,0 -5.099609,2.2893 -5.099609,5.099609 v 2.201172 a 0.5,0.5 0 0 0 0.5,0.5 0.5,0.5 0 0 0 0.5,-0.5 V 23.099609 C 19.900391,20.829724 21.730115,19 24,19 c 2.269885,0 4.099609,1.829724 4.099609,4.099609 v 2.201172 a 0.5,0.5 0 0 0 0.5,0.5 0.5,0.5 0 0 0 0.5,-0.5 V 23.099609 C 29.099609,20.2893 26.81031,18 24,18 Z"
       id="path2" />
    <circle
       class="d"
       cx="24"
       cy="29.9008"
       r=".75"
       id="circle2" />
  </g>
</svg>

<?xml version="1.0" encoding="UTF-8"?>
<svg id="svg16" version="1.1" viewBox="0 0 48 48" xmlns="http://www.w3.org/2000/svg">
 <defs id="defs4">
  <style id="style2">.c{fill:none;stroke:#000;stroke-linecap:round;stroke-linejoin:round;}.d{fill:#000;stroke-width:2px;}</style>
 </defs>
 <g id="a">
  <path id="path6" d="m7.5 8c-1.9271 0-3.5 1.5729-3.5 3.5v25c0 1.9271 1.5729 3.5 3.5 3.5h33c1.9271 0 3.5-1.5729 3.5-3.5v-20c0-1.9271-1.5729-3.5-3.5-3.5h-14.719c-0.72954 0-1.4396-0.22829-2.0332-0.65234l-4.9141-3.5098c-0.76322-0.54511-1.6774-0.83789-2.6152-0.83789zm0 1h8.7188c0.72954 0 1.4394 0.22825 2.0332 0.65234l4.9141 3.5098c0.76316 0.54515 1.6774 0.83789 2.6152 0.83789h14.719c1.3867 0 2.5 1.1133 2.5 2.5v20c0 1.3867-1.1133 2.5-2.5 2.5h-33c-1.3867 0-2.5-1.1133-2.5-2.5v-25c0-1.3867 1.1133-2.5 2.5-2.5z" color="#000000" stroke-linecap="round" stroke-linejoin="round" style="-inkscape-stroke:none"/>
 </g>
 <g id="b">
  <path id="rect9" d="m18.234 24.801a0.50005 0.50005 0 0 0-0.5 0.5v9.1992a0.50005 0.50005 0 0 0 0.5 0.5h11.531a0.50005 0.50005 0 0 0 0.5-0.5v-9.1992a0.50005 0.50005 0 0 0-0.5-0.5zm0.5 1h10.531v8.1992h-10.531z" color="#000000" stroke-linecap="round" stroke-linejoin="round" style="-inkscape-stroke:none"/>
  <path id="path11" d="m24 18c-2.8103 0-5.0996 2.2893-5.0996 5.0996v2.2012a0.5 0.5 0 0 0 0.5 0.5 0.5 0.5 0 0 0 0.5-0.5v-2.2012c0-2.2699 1.8297-4.0996 4.0996-4.0996s4.0996 1.8297 4.0996 4.0996v2.2012a0.5 0.5 0 0 0 0.5 0.5 0.5 0.5 0 0 0 0.5-0.5v-2.2012c0-2.8103-2.2893-5.0996-5.0996-5.0996z" color="#000000" stroke-linecap="round" stroke-linejoin="round" style="-inkscape-stroke:none"/>
  <circle id="circle13" class="d" cx="24" cy="29.901" r=".75"/>
 </g>
</svg>
